X: 1
T: String Quartet in E Major opus 17 no 1 mvt 1
C: Franz Joseph Haydn
%%abc-version 2.0
%%abcx-abcm2ps-target-version 5.9.1 (29 Sep 2008)
%%abc-creator hum2abc beta
%%abcx-conversion-date 2021/02/14 14:38:23
%%abc-copyright Copyright (c) 1994, 2000 Center for Computer Assisted Research in the Humanities
%%abc-edited-by Frances Bennion
%%abcx-initial-encoding-date 1997/04/15
%%gracespace 0 6 6
%%humdrum-veritas 2428281336
%%humdrum-veritas-data 3172160702
%%linebreak <none>
%%barnumbers 0
L: 1/8
M: 4/4
N: Derived from op17n1-01.krn
Q: "Presto" 1/4=152
%%staves [1 2 3 4]
V: 1
V: 2
V: 3 clef=alto
V: 4 clef=bass
K: E
[V:1]z7 G [I:setbarnb1]|
[V:2]z7 z |
[V:3]z7 z |
[V:4]z7 z |
[V:1]GB AF E2 zG |
[V:2]B,2 D2 E2 z2 |
[V:3]E,2 A,2 G,2 z2 |
[V:4]E,,2 B,,2 E,2 z2 |
[V:1]AB cE D2 zB, |
[V:2]E2 C2 B,2 z2 |
[V:3]E,2 A,2 F,2 z2 |
[V:4]C,2 A,,2 B,,2 z2 |
[V:1]FA GE cc2 d/e/ |
[V:2]B,2 B,2 E2 E2 |
[V:3]F,2 G,2 A,2 C2 |
[V:4]D,2 E,2 A,,2 A,2 |
[V:1]Bd/e/ Bd/e/ BB BA/G/ |
[V:2]E2 E2 E4- |
[V:3]G,2 G,2 B,4 |
[V:4]G,2 G,2 G,4 |
[V:1]FF2 F F>G AG |
[V:2]E8- |
[V:3]C2 B,2 A,3 B, |
[V:4]A,2 B,2 C3 B, |
[V:1]FF2 A/G/ E2 zE |
[V:2]E2 D2 E2 z2 |
[V:3]C2 B,2 E,2 z2 |
[V:4]^A,2 B,2 E,2 z2 |
[V:1]GB AF E2 zE |
[V:2]B,2 D2 E2 z2 |
[V:3]E,2 A,2 G,2 z2 |
[V:4]E,,2 B,,2 E,2 z2 |
[V:1]Gc eg c2 ^Bf |
[V:2]z4 F4- |
[V:3]z4 D4 |
[V:4]z4 G,4- |
[V:1]d^B GF F2 EG |
[V:2]F2 >D2 D2 Cz |
[V:3]^B,2 >G,2 G,4 |
[V:4]G,4 C,4 |
[V:1]^Bc eg =B2 ^Ae |
[V:2]z4 E4- |
[V:3]z4 C3 F, |
[V:4]z4 F,4- |
[V:1]c^A FA A2 Bf |
[V:2]E2 >E2 E2 D2 |
[V:3]^A,C EC C2 DF, |
[V:4]F,8- |
[V:1]dB F^B B2 cg |
[V:2]F2 >F2 F2 E2 |
[V:3]B,D FD D2 EF, |
[V:4]F,8- |
[V:1]ec ^AE DB2 B- |
[V:2]E4 DB2 A- |
[V:3]^A,C EE, D,F2 F- |
[V:4]F,2 >E,2 D,2 D,2 |
[V:1]BB2 B2 B2 B |
[V:2]AG2 F2 E2 D |
[V:3]FE2 D2 B,2 B, |
[V:4]E,2 F,2 G,2 F,2 |
[V:1]B^A AA2 <A2 ^B/c/ |
[V:2]CC CC CC CC |
[V:3]DD DD DD DD |
[V:4]^^F,F, F,F, F,F, F,F, |
[V:1]c^B BB2 <B2 c/d/ |
[V:2]DD DD DD DD |
[V:3]G,G, G,G, G,G, G,G, |
[V:4]F,F, F,F, F,F, F,F, |
[V:1]dc cc cg f/e/d/c/ |
[V:2]G,G, G,G, G,2 C2- |
[V:3]G,G, G,G, G,G, G,G, |
[V:4]E,4 E,3 ^E, |
[V:1]B2 ^A/F/F (3:2:2c2-c//F/F |
[V:2]CC Cz2 ^A, A,z |
[V:3]F,F, F,z2 F Fz |
[V:4]F,F, F,z2 F, F,z |
[V:1]e/c/c ^a/f/f c'/a/a e'2- |
[V:2]z^A zA zA zA |
[V:3]zC zC zC zC |
[V:4]zF, zF, zF, zF, |
[V:1]e'd' c'b ^ag fe |
[V:2]^A2 z6 |
[V:3]C2 z4 zG |
[V:4]F,2 z6 |
[V:1]dc B^A GF ^E2 |
[V:2]zG FE DC =D2- |
[V:3]FE DC B,^A, B,2- |
[V:4]z7 =G, |
[V:1]F2 >^E2 F3 E |
[V:2]DC E=D2 C ED- |
[V:3]B,^A, CB,2 A, CB,- |
[V:4]F,2 >=G,2 F,3 G, |
[V:1](3:2:2F4- F/DE F|
[V:2]DC DE FB, CD |
[V:3]B,^A, B,C F,4- |
[V:4]F,8- |
[V:1]G^A Bc dc de |
[V:2]EC D^A, B,A, B,C |
[V:3]F,4 F,3 ^A, |
[V:4]F,4 F,3 E, |
[V:1]^e/f/d/B/ ^A/F/=e/c/ ^e/f/d/B/ A/F/=e/c/ |
[V:2]B,2 zC B,2 zC |
[V:3]F,2 z[^A,F,] [B,2F,2] z[A,F,] |
[V:4]D,2 zF, D,2 zF, |
[V:1]^e/f/d/B/ ^a/b/B/=a/ ^^f/g/E/=e/ g/e/c'/^a/ |
[V:2]B,z Fz B,z BF |
[V:3][B,F,]z B,z Ez EC |
[V:4]D,z D,z E,z E,E, |
[V:1]bc' d'e' f'g' a'a' |
[V:2]F4 B,2 ff |
[V:3]D^A, B,C DB BB |
[V:4]D,^A,, B,,C, D,2 D,D, |
[V:1]a'6 z2 |
[V:2]f4- f2 z2 |
[V:3]B4- B2 z2 |
[V:4]D,4- D,2 z2 |
[V:1]g>^^f g/f/g/f/ gg ^fe |
[V:2]e>d e/d/e/d/ ee dc |
[V:3]z8 |
[V:4]z8 |
[V:1]d<f fe//d//c//B// c4 |
[V:2]B<d dB BB ^AA |
[V:3]FF FF FF EE |
[V:4]F,F, F,F, F,F, F,F, |
[V:1](3f/g/f/(3d/c/B/ (3^A/G/F/(3e/d/c/ (3f/g/f/(3d/c/B/ (3A/G/F/(3e/d/c/ |
[V:2]B,2 zC B,2 zC |
[V:3]D2 z[^A,F,] [B,2F,2] z[A,F,] |
[V:4]D,2 zF, D,2 zF, |
[V:1](3f/g/f/(3d/c/B/ (3b/^a/b/(3f/g/=a/ (3g/f/g/(3G/F/E/ (3g/f/e/(3e'/c'/^a/ |
[V:2]B,z Fz Gz BF |
[V:3][B,F,]z B,z B,z EC |
[V:4]D,z D,z E,z E,E, |
[V:1](3b/b/b/(3c'/c'/c'/ (3d'/d'/d'/(3e'/e'/e'/ (3f'/f'/f'/(3g'/g'/g'/ (3a'/a'/a'/(3a'/a'/a'/ |
[V:2]F4 B,2 ff |
[V:3]DE DC B,B =cc |
[V:4]D,^A,, B,,C, D,2 D,D, |
[V:1]a'6 z2 |
[V:2]f4- f2 z2 |
[V:3]=c4- c2 z2 |
[V:4]D,4- D,2 z2 |
[V:1]g>^^f g/f/g/f/ gg ^fe |
[V:2]e>d e/d/e/d/ ee dc |
[V:3]z8 |
[V:4]z8 |
[V:1]d4 c4 |
[V:2]B4 ^A4 |
[V:3]F4 E4 |
[V:4]F,F, F,F, ^^F,F, F,F, |
[V:1]^B4 =Bc dB |
[V:2]FG AF ^E4 |
[V:3]D2 G4 C2- |
[V:4]G,4 C,4 |
[V:1]^A4 =AB cA |
[V:2]EF GE D4 |
[V:3]C2 F4 F2 |
[V:4]F,4 B,,4 |
[V:1]G2- G//A//B//c//d//e//f//g/8^a/8 b2 a/g/f/e/ |
[V:2]E[gB] [g2B2] z4 |
[V:3]EE E2 z4 |
[V:4]E,E,, E,,2 z4 |
[V:1]d<f fe//d//c//B// c4 |
[V:2]B<d dB BB ^AE |
[V:3]FF FF FF F^A, |
[V:4]F,F, F,F, F,F, F,F, |
[V:1]B2 >d2 ef g^A |
[V:2]DE FA2 <G2 E |
[V:3]B,C DF2 <E2 C |
[V:4]B,,8- |
[V:1]B2 >D2 EF G^A, |
[V:2]DE FA2 <G2 E |
[V:3]B,C DF2 <E2 C |
[V:4]B,,8- |
[V:1]^A,4 B,2 z2 |
[V:2]E4 D2 z2 |
[V:3]C4 B,2 z2 |
[V:4]B,,4- B,,2 zB,, |
[V:1](3:2:2z4 z/=d'c' b|
[V:2]z4 zb ag |
[V:3]z7 C |
[V:4]B,C =DF, ^E,2 z2 |
[V:1]a2 z2 >a2 gf |
[V:2]f2 z2 >f2 ed |
[V:3]FG AC ^B,2 z2 |
[V:4]z7 G, |
[V:1]e2 z2 >e2 dc |
[V:2]c2 z2 >c2 B^A |
[V:3]z7 D |
[V:4]CD EG, ^^F,2 zF, |
[V:1]B^^f/g/ d3 ^a/b/ d2- |
[V:2]BB BB BB BB |
[V:3]DD DD DD DD |
[V:4]G,G, G,G, G,G, G,G, |
[V:1]d^^c'/d'/ d2 >^c'2 b^a |
[V:2]^AA AA AA dd |
[V:3]DD DD DD DD |
[V:4]^^F,F, F,F, F,F, F,F, |
[V:1]b2 >^a2 gf ed |
[V:2]DD DD EE EE |
[V:3]B,B, B,B, B,B, B,B, |
[V:4]G,G, G,G, G,G, G,G, |
[V:1]d^^c2 <c2 b ^ac |
[V:2]^EE EE EE EE |
[V:3]^A,A, A,A, A,A, A,A, |
[V:4]G,G, G,G, G,G, G,G, |
[V:1]^ed2 <d2 f dc |
[V:2]^A,A, A,A, A,A, A,A, |
[V:3]^A,A, A,A, A,A, A,A, |
[V:4]F,F, F,F, F,F, F,F, |
[V:1]c^B2 <B2 d gB |
[V:2]DD DD DD DD |
[V:3]G,G, G,G, G,G, G,G, |
[V:4]F,F, F,F, F,F, F,F, |
[V:1]dc2 <c2 c de |
[V:2]CC CC GG GG |
[V:3]G,G, G,G, EE EE |
[V:4]E,E, E,E, E,E, E,E, |
[V:1]ed2 <d2 d ef |
[V:2]GG GG GG GG |
[V:3]FF FF DD DD |
[V:4]^B,,B,, B,,B,, B,,B,, B,,B,, |
[V:1](3e/g/f/(3e/d/c/ (3^B/^A/G/(3f/e/d/ (3e/g/f/(3e/d/c/ (3B/A/G/(3f/e/d/ |
[V:2]G2 zG G2 zG |
[V:3]C2 zD C2 zD |
[V:4]C,2 z^B,, C,2 z^B, |
[V:1](3e/g/f/(3e/d/e/ (3c'/b/c'/(3c/g/b/ af' e'd' |
[V:2]Gz Gz Fa gf |
[V:3]Cz Cz C2 z2 |
[V:4]Cz E,z F,2 z2 |
[V:1]c'4 d'4 |
[V:2]e2 c4 ^B2 |
[V:3]GG GG FF FF |
[V:4]G,G, G,G, G,G, G,G, |
[V:1]c'2 [Ac']>[c'A] [A2c'2] z2 |
[V:2]c2 e>e e2 z2 |
[V:3]E2 A>A A2 z2 |
[V:4]A,2 A,>A, A,2 z2 |
[V:1]E2 E>E E2 z2 |
[V:2]C2 C>C C2 z2 |
[V:3]^A,2 A,>A, A,2 z2 |
[V:4]^^F,,2 F,,>F,, F,,2 z2 |
[V:1]E4 =D4 |
[V:2]C4 B,4 |
[V:3]E,4 ^E,4 |
[V:4]G,,8 |
[V:1]C^E F^B cG AF |
[V:2]A,8- |
[V:3]F,8- |
[V:4]A,,8 |
[V:1]E4 D2 zE |
[V:2]A,4- A,2 z2 |
[V:3]F,4- F,2 z2 |
[V:4]B,,4- B,,2 z2 |
[V:1]GB AF E2 zg |
[V:2]B,2 D2 E2 zg |
[V:3]E,2 A,2 G,2 z2 |
[V:4]E,,2 B,,2 E,2 zE |
[V:1]ab c'e d2 zd |
[V:2]ed cB AG Ff |
[V:3]z2 >E2 FG AA, |
[V:4]CB, A,G, F,E, D,D |
[V:1]ga bd c2 zc |
[V:2]dc BA GF Ee |
[V:3]B,2 zD EF GG, |
[V:4]B,A, G,F, E,D, C,C |
[V:1]fg ac B2 zB |
[V:2]cB AG FE Dd |
[V:3]A,2 zC DE FF, |
[V:4]A,G, F,E, D,C, B,,B, |
[V:1]ef gA de fB |
[V:2]BA Gc AG Fd |
[V:3]G,2 z4 B2 |
[V:4]G,F, E,A, F,E, D,B, |
[V:1]ef gg f4- |
[V:2]e8 |
[V:3]c8 |
[V:4]CD EG, A,B, C^A, |
[V:1]f4 e4- |
[V:2]d8 |
[V:3]B8 |
[V:4]B,C DF, G,A, B,G, |
[V:1]e4 d4- |
[V:2]c8 |
[V:3]A8 |
[V:4]A,B, CE, F,G, A,F, |
[V:1]d4 c4- |
[V:2]B8 |
[V:3]G8 |
[V:4]G,A, B,D, E,F, G,C, |
[V:1]c4 B4- |
[V:2]A8 |
[V:3]F8 |
[V:4]F,G, A,C, D,E, F,D, |
[V:1]B4 e4- |
[V:2]=G6 =c2 |
[V:3]E4 =G4 |
[V:4]E,F, =G,E, =C,D, E,C, |
[V:1]e4 d2 e2 |
[V:2]=c8 |
[V:3]A8- |
[V:4]A,,B,, =C,A,, F,,A,, E,,A,, |
[V:1]f2 [aB]>[aB] [a2B2] zE |
[V:2]B2 [fB]>[fB] [f2B2] z2 |
[V:3]A2 B,>B, B,2 z2 |
[V:4]D,,2 D,,>D,, D,,2 z2 |
[V:1]GB AF E2 zE |
[V:2]B,2 D2 E2 z2 |
[V:3]E,2 A,2 G,2 z2 |
[V:4]E,,2 B,,2 E,2 z2 |
[V:1]AB cE D2 zB, |
[V:2]E2 C2 B,2 z2 |
[V:3]E,2 A,2 F,2 z2 |
[V:4]C,2 A,,2 B,,2 z2 |
[V:1]FA GE cc2 d/e/ |
[V:2]B,2 B,2 E2 E2 |
[V:3]F,2 G,2 A,2 C2 |
[V:4]D,2 E,2 A,,2 A,2 |
[V:1]Bd/e/ Bd/e/ BB BA/G/ |
[V:2]E2 E2 E4- |
[V:3]G,2 G,2 B,4 |
[V:4]G,2 G,2 G,4 |
[V:1]FF2 F F>G AG |
[V:2]E8- |
[V:3]C2 B,2 A,3 B, |
[V:4]A,2 B,2 C3 B, |
[V:1]FF2 A/G/ E2 zB/G/ |
[V:2]E2 D2 E2 z2 |
[V:3]C2 B,2 E,2 z2 |
[V:4]^A,2 B,2 E,2 z2 |
[V:1]FF2 F F>G AG |
[V:2]E8- |
[V:3]C2 B,2 A,3 B, |
[V:4]A,2 B,2 C3 B, |
[V:1]FF2 B2 E2 c- |
[V:2]E2 =D4 C2 |
[V:3]C2 B,4 A,2 |
[V:4]^A,2 B,2 G,2 =A,2 |
[V:1]cB/A/ G/F/^E/F/ E/F/E/F/ CF |
[V:2]E2 z6 |
[V:3]C2 z6 |
[V:4]A,,3 z4 z |
[V:1]E2 D/B,/B, (3:2:2F2-F//B,/B, |
[V:2]zA, A,z2 D Dz |
[V:3]zF, F,z2 A, A,z |
[V:4]zB,, B,,z2 B,, B,,z |
[V:1]A/F/F d/B/B f/d/d a2- |
[V:2]zD zD zD zD |
[V:3]zF zF zF zF |
[V:4]zB,, zB,, zB,, zB,, |
[V:1]ag fe dc' ba |
[V:2]D2 z6 |
[V:3]F2 z4 zc |
[V:4]B,,2 z6 |
[V:1]gf ed cB ^A2 |
[V:2]zc BA GF =G2- |
[V:3]BA GF ED E2- |
[V:4]z7 =C |
[V:1]B2 >^A2 B3 A |
[V:2]GF A=G2 F AG- |
[V:3]ED FE2 D FE- |
[V:4]B,2 >=C2 B,3 C |
[V:1](3:2:2B4- B/GA B|
[V:2]GF GA BE FG |
[V:3]ED EF B,4- |
[V:4]B,8- |
[V:1]cd ef gf ga |
[V:2]AF GD ED EF |
[V:3]B,4 B,3 D |
[V:4]B,4 B,3 A, |
[V:1]^a/b/g/e/ d/B/=a/f/ ^a/b/g/e/ d/B/=a/f/ |
[V:2]G2 zF E2 zF |
[V:3]B,2 z[B,D,] [B,2E,2] z[B,D,] |
[V:4]G,2 zB, G,2 zB, |
[V:1]^a/b/g/e/ d/e/=d/B/ ^B/c/A,/A/ c/A/f/^d/ |
[V:2]Ez Bz Az EB, |
[V:3][E,B,]z Ez Ez A,F, |
[V:4]G,z G,z A,z A,A, |
[V:1]ef ga bc' =d'd' |
[V:2]B4 E2 bb |
[V:3]G,D EF GF EE |
[V:4]G,D, E,F, G,2 G,G, |
[V:1]=d'4- d'2 z2 |
[V:2]b4- b2 z2 |
[V:3]E4- E2 z2 |
[V:4]G,4- G,2 z2 |
[V:1]c'>^b c'/b/c'/b/ c'c' =ba |
[V:2]a>g a/g/a/g/ aa gf |
[V:3]z8 |
[V:4]z8 |
[V:1]g<b ba//g//f//e// f4 |
[V:2]e<g ge ee dd |
[V:3]B,B, B,B, B,B, A,A, |
[V:4]B,B, B,B, B,B, B,B, |
[V:1](3g/b/a/(3g/f/e/ (3d/c/B/(3a/g/f/ (3g/b/a/(3g/f/e/ (3d/c/B/(3a/g/f/ |
[V:2]e2 zd e2 zd |
[V:3]G,2 zF E2 zF |
[V:4]E,2 zB,, E,2 zB,, |
[V:1](3g/b/a/(3g/f/e/ (3=d/f/e/(3d/c/B/ (3c/B/c/(3C/B,/A,/ (3c/B/A/(3a/f/^d/ |
[V:2]ez Ez Ez EB |
[V:3]E2 zB, Cz AF |
[V:4]E,z G,z A,z A,A, |
[V:1](3e/e/e/(3f/f/f/ (3g/g/g/(3a/a/a/ (3b/b/b/(3c'/c'/c'/ (3=d'/d'/d'/(3d'/d'/d'/ |
[V:2]B4 E2 bb |
[V:3]GA GF E2 =FF |
[V:4]G,D, E,F, G,2 G,G, |
[V:1]=d'4- d'2 z2 |
[V:2]b4- b2 z2 |
[V:3]=F4- F2 z2 |
[V:4]G,4- G,2 z2 |
[V:1]c'>^b c'/b/c'/b/ c'c' =ba |
[V:2]a>g a/g/a/g/ aa gf |
[V:3]z8 |
[V:4]z8 |
[V:1]g4 f4 |
[V:2]e4 d4 |
[V:3]B4 A4 |
[V:4]B,B, B,B, ^B,B, B,B, |
[V:1]^e4 =ef ge |
[V:2]Bc =dB ^A4 |
[V:3]G2 c4 F2- |
[V:4]C4 F,4 |
[V:1]d4 =de fd |
[V:2]AB cA G4 |
[V:3]F2 B4 B2 |
[V:4]B,4 E,4 |
[V:1](3:2:2c-c/8A//B//c//=d//e//f// g//a//b//c'//d'//e' c'b a|
[V:2]A[cE] [c2E2] z4 |
[V:3]cA A2 z4 |
[V:4]A,A,, A,,2 z4 |
[V:1]g<b ba//g//f//e// f4 |
[V:2]e<g ge ee dA |
[V:3]B,B, B,B, B,B, B,D |
[V:4]B,,B,, B,,B,, B,,B,, B,,B,, |
[V:1]e2 >g2 ab c'd |
[V:2]GA B=d2 <c2 A, |
[V:3]EF GB2 <A2 F, |
[V:4]E,8 |
[V:1]e2 >G2 AB cD |
[V:2]G,A, B,=D2 <C2 A, |
[V:3]E,F, G,B,2 <A,2 F, |
[V:4]E,,8 |
[V:1]D4 E2 z2 |]
[V:2]A,4 G,2 z2 |]
[V:3]F,4 E,2 z2 |]
[V:4]E,,4- E,,2 z2 |]

